X:3311
T:Kit O'Connor
O:england
M:4/4
L:1/8
S:Connie Connel, Cork (fiddle)
R:Reel
D:Session tape - Milltown Malbay 1983
N:As played
H:'Normally' an A tune (Tommy Peoples esp.)
K:G
D3E GABG | dGBG AGEG | D3E GABA | GE~E2 cEGE | {G}EDB,D G,2B,D | ~B3B AGEG |\
D3E GABd |1 {e}dBAd BGG2 :|2 {e}dBAd BGGd |:{e}d2BG DGBG | DGBG AEE2 |\
dB~B2 gB~B2 | c2Bc ABce | dB~B2 gB~B2 | c2Bc ABce | ~g3g eg{a}ge | dBGB AGEG :|


